Newaita-dark/actions/24/run-build-install-root.svg

<svg height="24" viewBox="0 0 24 24" width="24" xmlns="http://www.w3.org/2000/svg"><path d="m10.914062 2.152344c-.25 0-.464843.183594-.507812.429687l-.292969 1.777344c-.867187.199219-1.679687.539063-2.410156.992187l-1.460937-1.042968c-.085938-.058594-.183594-.09375-.289063-.09375-.140625-.003906-.273437.050781-.375.148437l-1.402344 1.402344c-.175781.179687-.199219.460937-.054687.664063l1.042968 1.460937c-.453124.730469-.792968 1.542969-.992187 2.410156l-1.777344.292969c-.246093.042969-.429687.257812-.429687.507812v1.984376c0 .253906.183594.46875.429687.507812l1.777344.296875c.199219.867187.539063 1.675781.992187 2.40625l-1.042968 1.464844c-.144532.203125-.121094.484375.054687.660156l1.402344 1.40625c.179687.175781.460937.199219.664063.054687l1.460937-1.046874c.730469.457031 1.542969.796874 2.410156.996093l.292969 1.773438c.042969.25.257812.429687.507812.429687h1.984376v-4.066406c-.320313.050781-.652344.078125-.992188.078125-3.296875 0-5.953125-2.652344-5.953125-5.953125 0-3.296875 2.65625-5.953125 5.953125-5.953125 3.300781 0 5.953125 2.65625 5.953125 5.953125 0 .699219-.117187 1.367188-.335937 1.984375h2.074218l.046875-.1875 1.773438-.296875c.25-.039062.429687-.253906.429687-.507812v-1.984376c0-.25-.179687-.464843-.429687-.507812l-1.773438-.292969c-.199219-.867187-.539062-1.679687-.996093-2.410156l1.046874-1.460937c.144532-.203126.121094-.484376-.054687-.664063l-1.40625-1.402344c-.097656-.097656-.230469-.152343-.371094-.148437-.105469 0-.207031.035156-.289062.09375l-1.464844 1.042968c-.730469-.453124-1.539063-.792968-2.40625-.992187l-.296875-1.777344c-.039062-.246093-.253906-.429687-.507812-.429687zm.4375 1.03125h1.113282l.167968 1.003906c-.238281-.019531-.480468-.03125-.726562-.03125-.242188 0-.484375.011719-.722656.03125zm-5.351562 2.214844.824219.589843c-.371094.308594-.714844.652344-1.023438 1.023438l-.589843-.824219zm11.816406 0 .785156.789062-.585937.824219c-.3125-.371094-.652344-.714844-1.023437-1.023438zm-13.816406 5.972656c-.019531.238281-.03125.480468-.03125.722656 0 .246094.011719.488281.03125.726562l-1.003906-.167968v-1.113282zm15.8125 0 1.007812.167968v1.113282l-1.007812.167968c.023438-.238281.03125-.480468.03125-.726562 0-.242188-.007812-.484375-.03125-.722656zm-14.011719 5.808594c.308594.371093.652344.710937 1.023438 1.023437l-.824219.585937-.789062-.785156zm5.382813 2.820312c.238281.023438.480468.03125.722656.03125.246094 0 .488281-.007812.726562-.03125l-.167968 1.007812h-1.113282zm0 0" fill="#e0e0e0"/><g fill="#f44336"><path d="m9.921875 8.621094c-.292969-.011719-.535156.222656-.535156.515625v5.953125c0 .398437.4375.648437.78125.441406l4.960937-2.976562c.332032-.199219.332032-.683594 0-.882813l-4.960937-2.976563c-.074219-.042968-.160157-.070312-.246094-.074218zm0 0"/><path d="m19.347656 19.535156h-1.984375v-2.960937c0-.277344.222657-.496094.496094-.496094h.992187c.277344 0 .496094.21875.496094.496094zm0 0"/><path d="m14.882812 18.542969h6.949219l-3.476562 3.476562zm0 0"/></g></svg>

<?xml version="1.0" encoding="UTF-8"?>
<svg xmlns="http://www.w3.org/2000/svg" xmlns:xlink="http://www.w3.org/1999/xlink" width="24px" height="24px" viewBox="0 0 24 24" version="1.1">
<g id="surface1">
<path style=" stroke:none;fill-rule:nonzero;fill:rgb(87.843138%,87.843138%,87.843138%);fill-opacity:1;" d="M 10.914062 2.152344 C 10.664062 2.152344 10.449219 2.335938 10.40625 2.582031 L 10.113281 4.359375 C 9.246094 4.558594 8.433594 4.898438 7.703125 5.351562 L 6.242188 4.308594 C 6.15625 4.25 6.058594 4.214844 5.953125 4.214844 C 5.8125 4.210938 5.679688 4.265625 5.578125 4.363281 L 4.175781 5.765625 C 4 5.945312 3.976562 6.226562 4.121094 6.429688 L 5.164062 7.890625 C 4.710938 8.621094 4.371094 9.433594 4.171875 10.300781 L 2.394531 10.59375 C 2.148438 10.636719 1.964844 10.851562 1.964844 11.101562 L 1.964844 13.085938 C 1.964844 13.339844 2.148438 13.554688 2.394531 13.59375 L 4.171875 13.890625 C 4.371094 14.757812 4.710938 15.566406 5.164062 16.296875 L 4.121094 17.761719 C 3.976562 17.964844 4 18.246094 4.175781 18.421875 L 5.578125 19.828125 C 5.757812 20.003906 6.039062 20.027344 6.242188 19.882812 L 7.703125 18.835938 C 8.433594 19.292969 9.246094 19.632812 10.113281 19.832031 L 10.40625 21.605469 C 10.449219 21.855469 10.664062 22.035156 10.914062 22.035156 L 12.898438 22.035156 L 12.898438 17.96875 C 12.578125 18.019531 12.246094 18.046875 11.90625 18.046875 C 8.609375 18.046875 5.953125 15.394531 5.953125 12.09375 C 5.953125 8.796875 8.609375 6.140625 11.90625 6.140625 C 15.207031 6.140625 17.859375 8.796875 17.859375 12.09375 C 17.859375 12.792969 17.742188 13.460938 17.523438 14.078125 L 19.597656 14.078125 C 19.613281 14.015625 19.628906 13.953125 19.644531 13.890625 L 21.417969 13.59375 C 21.667969 13.554688 21.847656 13.339844 21.847656 13.085938 L 21.847656 11.101562 C 21.847656 10.851562 21.667969 10.636719 21.417969 10.59375 L 19.644531 10.300781 C 19.445312 9.433594 19.105469 8.621094 18.648438 7.890625 L 19.695312 6.429688 C 19.839844 6.226562 19.816406 5.945312 19.640625 5.765625 L 18.234375 4.363281 C 18.136719 4.265625 18.003906 4.210938 17.863281 4.214844 C 17.757812 4.214844 17.65625 4.25 17.574219 4.308594 L 16.109375 5.351562 C 15.378906 4.898438 14.570312 4.558594 13.703125 4.359375 L 13.40625 2.582031 C 13.367188 2.335938 13.152344 2.152344 12.898438 2.152344 Z M 11.351562 3.183594 L 12.464844 3.183594 L 12.632812 4.1875 C 12.394531 4.167969 12.152344 4.15625 11.90625 4.15625 C 11.664062 4.15625 11.421875 4.167969 11.183594 4.1875 Z M 6 5.398438 L 6.824219 5.988281 C 6.453125 6.296875 6.109375 6.640625 5.800781 7.011719 L 5.210938 6.1875 Z M 17.816406 5.398438 L 18.601562 6.1875 L 18.015625 7.011719 C 17.703125 6.640625 17.363281 6.296875 16.992188 5.988281 Z M 4 11.371094 C 3.980469 11.609375 3.96875 11.851562 3.96875 12.09375 C 3.96875 12.339844 3.980469 12.582031 4 12.820312 L 2.996094 12.652344 L 2.996094 11.539062 Z M 19.8125 11.371094 L 20.820312 11.539062 L 20.820312 12.652344 L 19.8125 12.820312 C 19.835938 12.582031 19.84375 12.339844 19.84375 12.09375 C 19.84375 11.851562 19.835938 11.609375 19.8125 11.371094 Z M 5.800781 17.179688 C 6.109375 17.550781 6.453125 17.890625 6.824219 18.203125 L 6 18.789062 L 5.210938 18.003906 Z M 11.183594 20 C 11.421875 20.023438 11.664062 20.03125 11.90625 20.03125 C 12.152344 20.03125 12.394531 20.023438 12.632812 20 L 12.464844 21.007812 L 11.351562 21.007812 Z M 11.183594 20 "/>
<path style=" stroke:none;fill-rule:nonzero;fill:rgb(95.686275%,26.274511%,21.176471%);fill-opacity:1;" d="M 9.921875 8.621094 C 9.628906 8.609375 9.386719 8.84375 9.386719 9.136719 L 9.386719 15.089844 C 9.386719 15.488281 9.824219 15.738281 10.167969 15.53125 L 15.128906 12.554688 C 15.460938 12.355469 15.460938 11.871094 15.128906 11.671875 L 10.167969 8.695312 C 10.09375 8.652344 10.007812 8.625 9.921875 8.621094 Z M 9.921875 8.621094 "/>
<path style=" stroke:none;fill-rule:nonzero;fill:rgb(95.686275%,26.274511%,21.176471%);fill-opacity:1;" d="M 19.347656 19.535156 L 17.363281 19.535156 L 17.363281 16.574219 C 17.363281 16.296875 17.585938 16.078125 17.859375 16.078125 L 18.851562 16.078125 C 19.128906 16.078125 19.347656 16.296875 19.347656 16.574219 Z M 19.347656 19.535156 "/>
<path style=" stroke:none;fill-rule:nonzero;fill:rgb(95.686275%,26.274511%,21.176471%);fill-opacity:1;" d="M 14.882812 18.542969 L 21.832031 18.542969 L 18.355469 22.019531 Z M 14.882812 18.542969 "/>
</g>
</svg>
